X: 16
T:The Trecynon Polka
M:C
L:1/16
Q:200
S:Robin Huw Bowen
R:Polka
A:Wales
Z:brian_martin12345@yahoo.com
K:G
Bc|d2b2 bagf|g2B2 dBdg|f2A2 cBce|d2G2 BABc| d2b2 bagf|g2B2 dBdg| f2A2 cBcF|G2g2g2:||
fg|a2A2a2A2|fgfe f4|g2e2 edef|!f2d2 defg| a2A2a2A2|fgfe f4|g2e2 edef|e2d2d2:||
